Newaita-dark/apps/48/pcloud.svg

<svg height="48pt" viewBox="0 0 48 48" width="48pt" xmlns="http://www.w3.org/2000/svg" xmlns:xlink="http://www.w3.org/1999/xlink"><linearGradient id="a"><stop offset="0" stop-opacity=".313726"/><stop offset=".222222" stop-opacity=".27451"/><stop offset="1" stop-opacity="0"/></linearGradient><radialGradient id="b" cx="450.908936" cy="189.579361" gradientTransform="matrix(.00000026 -.117199 -.210958 -.00000015 75.219127 91.047184)" gradientUnits="userSpaceOnUse" r="21.166656" xlink:href="#a"/><radialGradient id="c" cx="450.908936" cy="189.579361" gradientTransform="matrix(-.00000026 .117199 .210958 .00000015 -29.574146 -15.637034)" gradientUnits="userSpaceOnUse" r="21.166656" xlink:href="#a"/><radialGradient id="d" cx="450.908936" cy="189.579361" gradientTransform="matrix(-.00000026 -.117199 .210958 -.00000015 -29.574146 91.047184)" gradientUnits="userSpaceOnUse" r="21.166656" xlink:href="#a"/><radialGradient id="e" cx="450.908936" cy="189.579361" gradientTransform="matrix(.00000026 .117199 -.210958 .00000015 75.219124 -15.637034)" gradientUnits="userSpaceOnUse" r="21.166656" xlink:href="#a"/><linearGradient id="f" gradientTransform="matrix(.0200401 0 0 .093759 15.22509 15.812365)" gradientUnits="userSpaceOnUse" x1="255.323059" x2="255.323044" y1="233.5" y2="254.666656"><stop offset="0" stop-opacity=".27451"/><stop offset="1" stop-opacity="0"/></linearGradient><linearGradient id="g" gradientUnits="userSpaceOnUse" x1="23.814786" x2="23.814786" y1="37.70508600005" y2="7.9366019999"><stop offset="0" stop-color="#26c6da"/><stop offset="1" stop-color="#4dd0e1"/></linearGradient><linearGradient id="h" gradientUnits="userSpaceOnUse" x1="23.81478100005" x2="23.81478100005" y1="34.11264512713" y2="12.28242550222"><stop offset="0" stop-color="#e0e0e0"/><stop offset="1" stop-color="#eee"/></linearGradient><path d="m35.722656 37.703125h3.96875v-1.984375h-3.96875zm0 0" fill="url(#b)"/><path d="m9.921875 37.703125h-3.96875v1.988281h3.96875zm0 0" fill="url(#c)"/><path d="m9.921875 37.703125h-3.96875v-1.984375h3.96875zm0 0" fill="url(#d)"/><path d="m35.722656 37.703125h3.96875v1.988281h-3.96875zm0 0" fill="url(#e)"/><path d="m9.921875 37.207031h25.800781v2.484375h-25.800781zm0 0" fill="url(#f)"/><path d="m22.800781 7.921875c-7.695312 0-13.890625 6.542969-13.890625 14.671875v.421875c0 .265625.007813.53125.019532.792969-3.34375.214844-5.972657 3.070312-5.972657 6.582031v.707031c0 3.652344 2.84375 6.589844 6.378907 6.589844h5.546874v.015625h20.839844c5.496094 0 9.921875-4.425781 9.921875-9.921875 0-5.417969-4.296875-9.796875-9.683593-9.921875-1.855469-5.792969-7.03125-9.9375-13.160157-9.9375zm0 0" fill="url(#g)"/><path d="m9.886719 23.8125c-3.871094 0-6.984375 3.097656-6.984375 6.945312 0 .105469.003906.207032.007812.3125.160156-3.703124 3.210938-6.636718 6.976563-6.636718 3.761719 0 6.8125 2.933594 6.976562 6.636718.003907-.105468.003907-.207031.003907-.3125 0-3.847656-3.113282-6.945312-6.980469-6.945312zm0 0" fill="#fafafa" fill-opacity=".392157"/><path d="m22.800781 7.921875c-7.695312 0-13.890625 6.542969-13.890625 14.671875v.421875.164063c.089844-8.046876 6.25-14.5 13.890625-14.5 6.128907 0 11.304688 4.148437 13.160157 9.941406 5.257812.121094 9.480468 4.296875 9.675781 9.539062.003906-.128906.007812-.253906.007812-.378906 0-5.417969-4.296875-9.796875-9.683593-9.921875-1.855469-5.792969-7.03125-9.9375-13.160157-9.9375zm-13.890625 15.890625c-3.332031.222656-5.953125 3.070312-5.953125 6.578125v.707031.023438c.015625-3.496094 2.636719-6.335938 5.972657-6.550782-.011719-.25-.019532-.503906-.019532-.757812zm0 0" fill="#fff" fill-opacity=".392157"/><path d="m8.910156 22.417969v.175781.421875.035156h.019532c-.007813-.210937-.015626-.421875-.019532-.632812zm36.726563 4.980469c-.195313 5.320312-4.542969 9.542968-9.914063 9.542968h-20.839844v-.011718h-5.546874c-3.527344 0-6.363282-2.925782-6.378907-6.566407v.027344.707031c0 3.652344 2.84375 6.589844 6.378907 6.589844h5.546874v.015625h20.839844c5.496094 0 9.921875-4.425781 9.921875-9.921875 0-.128906 0-.257812-.007812-.382812zm0 0" fill-opacity=".235294"/><path d="m35.96875 17.859375c-5.359375 0-9.671875 4.425781-9.671875 9.921875 0 .125 0 .25.003906.375.191407-5.324219 4.429688-9.550781 9.667969-9.550781s9.480469 4.226562 9.667969 9.550781c.007812-.125.007812-.25.007812-.375 0-5.496094-4.316406-9.921875-9.675781-9.921875zm0 0" fill="#fafafa" fill-opacity=".392157"/><path d="m22.800781 7.78125c-7.773437 0-14.03125 6.609375-14.03125 14.8125v.421875c0 .226563.007813.449219.015625.667969-3.351562.289062-5.96875 3.171875-5.96875 6.707031v.707031c0 3.722656 2.90625 6.730469 6.519532 6.730469h5.488281c.019531.011719.039062.015625.058593.015625h20.839844c5.570313 0 10.0625-4.492188 10.0625-10.0625 0-5.460938-4.308594-9.875-9.722656-10.054688-1.898438-5.796874-7.101562-9.945312-13.261719-9.945312zm0 .28125c6.066407 0 11.1875 4.101562 13.027344 9.839844.015625.058594.070313.097656.128906.097656 5.3125.125 9.546875 4.4375 9.546875 9.78125 0 5.417969-4.359375 9.78125-9.78125 9.78125h-20.777344c-.019531-.011719-.039062-.015625-.0625-.015625h-5.546874c-3.457032 0-6.238282-2.871094-6.238282-6.449219v-.707031c0-3.441406 2.574219-6.230469 5.84375-6.441406.074219-.003907.132813-.070313.128906-.144531-.011718-.261719-.019531-.523438-.019531-.789063v-.421875c0-8.058594 6.136719-14.53125 13.75-14.53125zm0 0" fill="#212121"/><path d="m19.632812 11.988281c-.828124 0-1.496093.671875-1.496093 1.5v8.898438c-.027344.160156-.027344.324219 0 .484375v9.664062c-.007813.539063.277343 1.039063.742187 1.308594.464844.273438 1.042969.273438 1.507813 0 .464843-.269531.75-.769531.746093-1.308594v-8.40625h7.644532c.824218 0 1.496094-.671875 1.496094-1.5 0-4.820312-1.296876-7.761718-3.523438-9.246094-2.226562-1.484374-4.832031-1.394531-7.117188-1.394531zm1.5 3.019531c1.636719.058594 3.027344.25 3.957032.867188 1.050781.703125 1.9375 2.039062 2.144531 5.257812h-6.101563zm0 0" fill="url(#h)"/><path d="m20.503906 11.988281c-.292968 0-.585937 0-.871094 0-.828124 0-1.496093.671875-1.496093 1.5v.746094c0-.828125.667969-1.5 1.496093-1.5 2.285157 0 4.890626-.089844 7.117188 1.394531 2.128906 1.421875 3.410156 4.175782 3.515625 8.636719.003906-.046875.007813-.089844.007813-.136719 0-4.820312-1.296876-7.761718-3.523438-9.246094-1.949219-1.296874-4.183594-1.390624-6.246094-1.394531zm.628906 9.144531v.746094h6.101563c-.015625-.261718-.039063-.507812-.0625-.746094zm-2.996093 1.253907c-.027344.160156-.027344.324219 0 .484375zm0 0" fill="#fff"/><path d="m21.132812 15.070312v.761719c1.632813.058594 3.027344.25 3.957032.867188.964844.644531 1.789062 1.820312 2.078125 4.496093h.066406c-.207031-3.21875-1.09375-4.554687-2.144531-5.257812-.929688-.617188-2.324219-.808594-3.957032-.867188zm9.132813 7.757813c-.070313.773437-.714844 1.359375-1.488281 1.363281h-7.644532v.757813h7.644532c.824218 0 1.496094-.667969 1.496094-1.496094 0-.210937-.003907-.417969-.007813-.625zm-12.128906.378906c-.027344.164063-.027344.324219 0 .488281zm0 9.390625v.761719c-.007813.539063.277343 1.039063.742187 1.308594.464844.273437 1.042969.273437 1.507813 0 .46875-.269531.75-.769531.746093-1.308594v-.761719c.003907.539063-.277343 1.039063-.746093 1.3125-.464844.269532-1.042969.269532-1.507813 0-.464844-.273437-.75-.773437-.742187-1.3125zm0 0" fill-opacity=".235294"/><path d="m209.39667-87.13721c-8.83249 0-15.956809 7.165982-15.956809 15.998472v94.907603c-.291639 1.708171-.291639 3.458003 0 5.166174v103.07349c-.083326 5.749451 2.958051 11.082275 7.91591 13.957001 4.95786 2.916388 11.123938 2.916388 16.081798 0 4.95786-2.874726 7.999236-8.20755 7.957574-13.957001v-89.658105h81.53388c8.790827 0 15.95681-7.165982 15.95681-15.998472 0-51.411757-13.832013-82.783761-37.579745-98.615583-23.747732-15.831821-51.536745-14.873579-75.909418-14.873579zm15.998473 32.205258c17.456666.62494 32.288583 2.666412 42.204303 9.249116 11.207263 7.499284 20.664693 21.747924 22.872815 56.077979h-65.077118zm0 0" fill="none" stroke="#212121" stroke-linecap="round" stroke-linejoin="round" stroke-width="3" transform="matrix(.093759 0 0 .093759 0 20.158175)"/></svg>

<?xml version="1.0" encoding="UTF-8"?>
<svg xmlns="http://www.w3.org/2000/svg" xmlns:xlink="http://www.w3.org/1999/xlink" width="48pt" height="48pt" viewBox="0 0 48 48" version="1.1">
<defs>
<radialGradient id="radial0" gradientUnits="userSpaceOnUse" cx="450.908936" cy="189.579361" fx="450.908936" fy="189.579361" r="21.166656" gradientTransform="matrix(0.000000261256,-0.117199,-0.210958,-0.000000152308,75.219127,91.047184)">
<stop offset="0" style="stop-color:rgb(0%,0%,0%);stop-opacity:0.313726;"/>
<stop offset="0.222222" style="stop-color:rgb(0%,0%,0%);stop-opacity:0.27451;"/>
<stop offset="1" style="stop-color:rgb(0%,0%,0%);stop-opacity:0;"/>
</radialGradient>
<radialGradient id="radial1" gradientUnits="userSpaceOnUse" cx="450.908936" cy="189.579361" fx="450.908936" fy="189.579361" r="21.166656" gradientTransform="matrix(-0.000000261256,0.117199,0.210958,0.000000152308,-29.574146,-15.637034)">
<stop offset="0" style="stop-color:rgb(0%,0%,0%);stop-opacity:0.313726;"/>
<stop offset="0.222222" style="stop-color:rgb(0%,0%,0%);stop-opacity:0.27451;"/>
<stop offset="1" style="stop-color:rgb(0%,0%,0%);stop-opacity:0;"/>
</radialGradient>
<radialGradient id="radial2" gradientUnits="userSpaceOnUse" cx="450.908936" cy="189.579361" fx="450.908936" fy="189.579361" r="21.166656" gradientTransform="matrix(-0.000000261256,-0.117199,0.210958,-0.000000152308,-29.574146,91.047184)">
<stop offset="0" style="stop-color:rgb(0%,0%,0%);stop-opacity:0.313726;"/>
<stop offset="0.222222" style="stop-color:rgb(0%,0%,0%);stop-opacity:0.27451;"/>
<stop offset="1" style="stop-color:rgb(0%,0%,0%);stop-opacity:0;"/>
</radialGradient>
<radialGradient id="radial3" gradientUnits="userSpaceOnUse" cx="450.908936" cy="189.579361" fx="450.908936" fy="189.579361" r="21.166656" gradientTransform="matrix(0.000000261256,0.117199,-0.210958,0.000000152308,75.219124,-15.637034)">
<stop offset="0" style="stop-color:rgb(0%,0%,0%);stop-opacity:0.313726;"/>
<stop offset="0.222222" style="stop-color:rgb(0%,0%,0%);stop-opacity:0.27451;"/>
<stop offset="1" style="stop-color:rgb(0%,0%,0%);stop-opacity:0;"/>
</radialGradient>
<linearGradient id="linear0" gradientUnits="userSpaceOnUse" x1="255.323059" y1="233.5" x2="255.323044" y2="254.666656" gradientTransform="matrix(0.0200401,0,0,0.093759,15.22509,15.812365)">
<stop offset="0" style="stop-color:rgb(0%,0%,0%);stop-opacity:0.27451;"/>
<stop offset="1" style="stop-color:rgb(0%,0%,0%);stop-opacity:0;"/>
</linearGradient>
<linearGradient id="linear1" gradientUnits="userSpaceOnUse" x1="254" y1="191.166672" x2="254" y2="-126.333344" gradientTransform="matrix(0.093759,0,0,0.093759,0,19.78149)">
<stop offset="0" style="stop-color:rgb(14.901961%,77.64706%,85.490197%);stop-opacity:1;"/>
<stop offset="1" style="stop-color:rgb(30.19608%,81.568629%,88.235295%);stop-opacity:1;"/>
</linearGradient>
<linearGradient id="linear2" gradientUnits="userSpaceOnUse" x1="148.166672" y1="274.559265" x2="148.166672" y2="41.725941" gradientTransform="matrix(0.093759,0,0,0.093759,9.922822,8.370243)">
<stop offset="0" style="stop-color:rgb(87.843138%,87.843138%,87.843138%);stop-opacity:1;"/>
<stop offset="1" style="stop-color:rgb(93.333334%,93.333334%,93.333334%);stop-opacity:1;"/>
</linearGradient>
</defs>
<g id="surface1">
<path style=" stroke:none;fill-rule:nonzero;fill:url(#radial0);" d="M 35.722656 37.703125 L 39.691406 37.703125 L 39.691406 35.71875 L 35.722656 35.71875 Z M 35.722656 37.703125 "/>
<path style=" stroke:none;fill-rule:nonzero;fill:url(#radial1);" d="M 9.921875 37.703125 L 5.953125 37.703125 L 5.953125 39.691406 L 9.921875 39.691406 Z M 9.921875 37.703125 "/>
<path style=" stroke:none;fill-rule:nonzero;fill:url(#radial2);" d="M 9.921875 37.703125 L 5.953125 37.703125 L 5.953125 35.71875 L 9.921875 35.71875 Z M 9.921875 37.703125 "/>
<path style=" stroke:none;fill-rule:nonzero;fill:url(#radial3);" d="M 35.722656 37.703125 L 39.691406 37.703125 L 39.691406 39.691406 L 35.722656 39.691406 Z M 35.722656 37.703125 "/>
<path style=" stroke:none;fill-rule:nonzero;fill:url(#linear0);" d="M 9.921875 37.207031 L 35.722656 37.207031 L 35.722656 39.691406 L 9.921875 39.691406 Z M 9.921875 37.207031 "/>
<path style=" stroke:none;fill-rule:nonzero;fill:url(#linear1);" d="M 22.800781 7.921875 C 15.105469 7.921875 8.910156 14.464844 8.910156 22.59375 L 8.910156 23.015625 C 8.910156 23.28125 8.917969 23.546875 8.929688 23.808594 C 5.585938 24.023438 2.957031 26.878906 2.957031 30.390625 L 2.957031 31.097656 C 2.957031 34.75 5.800781 37.6875 9.335938 37.6875 L 14.882812 37.6875 L 14.882812 37.703125 L 35.722656 37.703125 C 41.21875 37.703125 45.644531 33.277344 45.644531 27.78125 C 45.644531 22.363281 41.347656 17.984375 35.960938 17.859375 C 34.105469 12.066406 28.929688 7.921875 22.800781 7.921875 Z M 22.800781 7.921875 "/>
<path style=" stroke:none;fill-rule:nonzero;fill:rgb(98.039216%,98.039216%,98.039216%);fill-opacity:0.392157;" d="M 9.886719 23.8125 C 6.015625 23.8125 2.902344 26.910156 2.902344 30.757812 C 2.902344 30.863281 2.90625 30.964844 2.910156 31.070312 C 3.070312 27.367188 6.121094 24.433594 9.886719 24.433594 C 13.648438 24.433594 16.699219 27.367188 16.863281 31.070312 C 16.867188 30.964844 16.867188 30.863281 16.867188 30.757812 C 16.867188 26.910156 13.753906 23.8125 9.886719 23.8125 Z M 9.886719 23.8125 "/>
<path style=" stroke:none;fill-rule:nonzero;fill:rgb(100%,100%,100%);fill-opacity:0.392157;" d="M 22.800781 7.921875 C 15.105469 7.921875 8.910156 14.464844 8.910156 22.59375 L 8.910156 23.015625 C 8.910156 23.070312 8.910156 23.125 8.910156 23.179688 C 9 15.132812 15.160156 8.679688 22.800781 8.679688 C 28.929688 8.679688 34.105469 12.828125 35.960938 18.621094 C 41.21875 18.742188 45.441406 22.917969 45.636719 28.160156 C 45.640625 28.03125 45.644531 27.90625 45.644531 27.78125 C 45.644531 22.363281 41.347656 17.984375 35.960938 17.859375 C 34.105469 12.066406 28.929688 7.921875 22.800781 7.921875 Z M 8.910156 23.8125 C 5.578125 24.035156 2.957031 26.882812 2.957031 30.390625 L 2.957031 31.097656 C 2.957031 31.105469 2.957031 31.113281 2.957031 31.121094 C 2.972656 27.625 5.59375 24.785156 8.929688 24.570312 C 8.917969 24.320312 8.910156 24.066406 8.910156 23.8125 Z M 8.910156 23.8125 "/>
<path style=" stroke:none;fill-rule:nonzero;fill:rgb(0%,0%,0%);fill-opacity:0.235294;" d="M 8.910156 22.417969 C 8.910156 22.476562 8.910156 22.535156 8.910156 22.59375 L 8.910156 23.015625 C 8.910156 23.027344 8.910156 23.039062 8.910156 23.050781 C 8.917969 23.050781 8.925781 23.050781 8.929688 23.050781 C 8.921875 22.839844 8.914062 22.628906 8.910156 22.417969 Z M 45.636719 27.398438 C 45.441406 32.71875 41.09375 36.941406 35.722656 36.941406 L 14.882812 36.941406 L 14.882812 36.929688 L 9.335938 36.929688 C 5.808594 36.929688 2.972656 34.003906 2.957031 30.363281 C 2.957031 30.371094 2.957031 30.378906 2.957031 30.390625 L 2.957031 31.097656 C 2.957031 34.75 5.800781 37.6875 9.335938 37.6875 L 14.882812 37.6875 L 14.882812 37.703125 L 35.722656 37.703125 C 41.21875 37.703125 45.644531 33.277344 45.644531 27.78125 C 45.644531 27.652344 45.644531 27.523438 45.636719 27.398438 Z M 45.636719 27.398438 "/>
<path style=" stroke:none;fill-rule:nonzero;fill:rgb(98.039216%,98.039216%,98.039216%);fill-opacity:0.392157;" d="M 35.96875 17.859375 C 30.609375 17.859375 26.296875 22.285156 26.296875 27.78125 C 26.296875 27.90625 26.296875 28.03125 26.300781 28.15625 C 26.492188 22.832031 30.730469 18.605469 35.96875 18.605469 C 41.207031 18.605469 45.449219 22.832031 45.636719 28.15625 C 45.644531 28.03125 45.644531 27.90625 45.644531 27.78125 C 45.644531 22.285156 41.328125 17.859375 35.96875 17.859375 Z M 35.96875 17.859375 "/>
<path style=" stroke:none;fill-rule:nonzero;fill:rgb(12.941177%,12.941177%,12.941177%);fill-opacity:1;" d="M 22.800781 7.78125 C 15.027344 7.78125 8.769531 14.390625 8.769531 22.59375 L 8.769531 23.015625 C 8.769531 23.242188 8.777344 23.464844 8.785156 23.683594 C 5.433594 23.972656 2.816406 26.855469 2.816406 30.390625 L 2.816406 31.097656 C 2.816406 34.820312 5.722656 37.828125 9.335938 37.828125 L 14.824219 37.828125 C 14.84375 37.839844 14.863281 37.84375 14.882812 37.84375 L 35.722656 37.84375 C 41.292969 37.84375 45.785156 33.351562 45.785156 27.78125 C 45.785156 22.320312 41.476562 17.90625 36.0625 17.726562 C 34.164062 11.929688 28.960938 7.78125 22.800781 7.78125 Z M 22.800781 8.0625 C 28.867188 8.0625 33.988281 12.164062 35.828125 17.902344 C 35.84375 17.960938 35.898438 18 35.957031 18 C 41.269531 18.125 45.503906 22.4375 45.503906 27.78125 C 45.503906 33.199219 41.144531 37.5625 35.722656 37.5625 L 14.945312 37.5625 C 14.925781 37.550781 14.90625 37.546875 14.882812 37.546875 L 9.335938 37.546875 C 5.878906 37.546875 3.097656 34.675781 3.097656 31.097656 L 3.097656 30.390625 C 3.097656 26.949219 5.671875 24.160156 8.941406 23.949219 C 9.015625 23.945312 9.074219 23.878906 9.070312 23.804688 C 9.058594 23.542969 9.050781 23.28125 9.050781 23.015625 L 9.050781 22.59375 C 9.050781 14.535156 15.1875 8.0625 22.800781 8.0625 Z M 22.800781 8.0625 "/>
<path style=" stroke:none;fill-rule:nonzero;fill:url(#linear2);" d="M 19.632812 11.988281 C 18.804688 11.988281 18.136719 12.660156 18.136719 13.488281 L 18.136719 22.386719 C 18.109375 22.546875 18.109375 22.710938 18.136719 22.871094 L 18.136719 32.535156 C 18.128906 33.074219 18.414062 33.574219 18.878906 33.84375 C 19.34375 34.117188 19.921875 34.117188 20.386719 33.84375 C 20.851562 33.574219 21.136719 33.074219 21.132812 32.535156 L 21.132812 24.128906 L 28.777344 24.128906 C 29.601562 24.128906 30.273438 23.457031 30.273438 22.628906 C 30.273438 17.808594 28.976562 14.867188 26.75 13.382812 C 24.523438 11.898438 21.917969 11.988281 19.632812 11.988281 Z M 21.132812 15.007812 C 22.769531 15.066406 24.160156 15.257812 25.089844 15.875 C 26.140625 16.578125 27.027344 17.914062 27.234375 21.132812 L 21.132812 21.132812 Z M 21.132812 15.007812 "/>
<path style=" stroke:none;fill-rule:nonzero;fill:rgb(100%,100%,100%);fill-opacity:1;" d="M 20.503906 11.988281 C 20.210938 11.988281 19.917969 11.988281 19.632812 11.988281 C 18.804688 11.988281 18.136719 12.660156 18.136719 13.488281 L 18.136719 14.234375 C 18.136719 13.40625 18.804688 12.734375 19.632812 12.734375 C 21.917969 12.734375 24.523438 12.644531 26.75 14.128906 C 28.878906 15.550781 30.160156 18.304688 30.265625 22.765625 C 30.269531 22.71875 30.273438 22.675781 30.273438 22.628906 C 30.273438 17.808594 28.976562 14.867188 26.75 13.382812 C 24.800781 12.085938 22.566406 11.992188 20.503906 11.988281 Z M 21.132812 21.132812 L 21.132812 21.878906 L 27.234375 21.878906 C 27.21875 21.617188 27.195312 21.371094 27.171875 21.132812 Z M 18.136719 22.386719 C 18.109375 22.546875 18.109375 22.710938 18.136719 22.871094 Z M 18.136719 22.386719 "/>
<path style=" stroke:none;fill-rule:nonzero;fill:rgb(0%,0%,0%);fill-opacity:0.235294;" d="M 21.132812 15.070312 L 21.132812 15.832031 C 22.765625 15.890625 24.160156 16.082031 25.089844 16.699219 C 26.054688 17.34375 26.878906 18.519531 27.167969 21.195312 L 27.234375 21.195312 C 27.027344 17.976562 26.140625 16.640625 25.089844 15.9375 C 24.160156 15.320312 22.765625 15.128906 21.132812 15.070312 Z M 30.265625 22.828125 C 30.195312 23.601562 29.550781 24.1875 28.777344 24.191406 L 21.132812 24.191406 L 21.132812 24.949219 L 28.777344 24.949219 C 29.601562 24.949219 30.273438 24.28125 30.273438 23.453125 C 30.273438 23.242188 30.269531 23.035156 30.265625 22.828125 Z M 18.136719 23.207031 C 18.109375 23.371094 18.109375 23.53125 18.136719 23.695312 Z M 18.136719 32.597656 L 18.136719 33.359375 C 18.128906 33.898438 18.414062 34.398438 18.878906 34.667969 C 19.34375 34.941406 19.921875 34.941406 20.386719 34.667969 C 20.855469 34.398438 21.136719 33.898438 21.132812 33.359375 L 21.132812 32.597656 C 21.136719 33.136719 20.855469 33.636719 20.386719 33.910156 C 19.921875 34.179688 19.34375 34.179688 18.878906 33.910156 C 18.414062 33.636719 18.128906 33.136719 18.136719 32.597656 Z M 18.136719 32.597656 "/>
<path style="fill:none;stroke-width:3;stroke-linecap:round;stroke-linejoin:round;stroke:rgb(12.941177%,12.941177%,12.941177%);stroke-opacity:1;stroke-miterlimit:4;" d="M 209.39667 -87.13721 C 200.56418 -87.13721 193.439861 -79.971228 193.439861 -71.138738 L 193.439861 23.768865 C 193.148222 25.477036 193.148222 27.226868 193.439861 28.935039 L 193.439861 132.008529 C 193.356535 137.75798 196.397912 143.090804 201.355771 145.96553 C 206.313631 148.881918 212.479709 148.881918 217.437569 145.96553 C 222.395429 143.090804 225.436805 137.75798 225.395143 132.008529 L 225.395143 42.350424 L 306.929023 42.350424 C 315.71985 42.350424 322.885833 35.184442 322.885833 26.351952 C 322.885833 -25.059805 309.05382 -56.431809 285.306088 -72.263631 C 261.558356 -88.095452 233.769343 -87.13721 209.39667 -87.13721 Z M 225.395143 -54.931952 C 242.851809 -54.307012 257.683726 -52.26554 267.599446 -45.682836 C 278.806709 -38.183552 288.264139 -23.934912 290.472261 10.395143 L 225.395143 10.395143 Z M 225.395143 -54.931952 " transform="matrix(0.093759,0,0,0.093759,0,20.158175)"/>
</g>
</svg>
